X:NEW 15-34
C:David Linton <djl@colourcountry.net>
M:6/8
K:Em
P:A
E2G B2F A2c e2d |1,3 c2A B2G E2F E2D :|2,4 c2A B2G E6 :|
P:B
d3 Bcd e3 ABc |1,3 d2c B2A E2F E2D :|2 d2e f2d B3 A3 :| G2F G2A B2c d2e f2d BAF E6 ||

